packages/icons/svg/Universe_Garage_64px.svg

<svg xmlns="http://www.w3.org/2000/svg" viewBox="0 0 64 64"><path d="M57.5 56H55V27.86l1.54 1.29a1.46 1.46 0 001 .35 1.5 1.5 0 001-2.65L33 5.5a1.51 1.51 0 00-2 0L5.54 26.85a1.5 1.5 0 101.92 2.3L9 27.86V56H6.5a1.5 1.5 0 000 3h51a1.5 1.5 0 000-3zM12 25.35L32 8.61l20 16.74V56h-3V32.5a1.5 1.5 0 00-1.5-1.5h-31a1.5 1.5 0 00-1.5 1.5V56h-3zM46 46v2H18v-2zm-28-2v-2h28v2zm28-4H18v-2h28zM18 50h28v2H18zm28-14H18v-2h28zM18 54h28v2H18z"/><path d="M32 27a5 5 0 10-5-5 5 5 0 005 5zm0-8a3 3 0 11-3 3 3 3 0 013-3z"/></svg>

<svg xmlns="http://www.w3.org/2000/svg" viewBox="0 0 64 64"><defs></defs><g id="Icon"><path  d="M57.5,56H55V27.86l1.54,1.29a1.46,1.46,0,0,0,1,.35,1.5,1.5,0,0,0,1-2.65L33,5.5A1.51,1.51,0,0,0,31,5.5L5.54,26.85a1.5,1.5,0,1,0,1.92,2.3L9,27.86V56H6.5a1.5,1.5,0,0,0,0,3h51a1.5,1.5,0,0,0,0-3ZM12,25.35,32,8.61,52,25.35V56H49V32.5A1.5,1.5,0,0,0,47.5,31h-31A1.5,1.5,0,0,0,15,32.5V56H12ZM46,46v2H18V46ZM18,44V42H46v2Zm28-4H18V38H46ZM18,50H46v2H18ZM46,36H18V34H46ZM18,54H46v2H18Z"/><path  d="M32,27a5,5,0,1,0-5-5A5,5,0,0,0,32,27Zm0-8a3,3,0,1,1-3,3A3,3,0,0,1,32,19Z"/></g></svg>
